!! "Komagaku: 'Nasori no kyu'" (Japanese) from
!! Eta Harich-Schneider, "A History of Japanese music"
!! Oxford University Press (London) 1973; p.573
!! NOTE: The repeat between bars 5 and 28 has been expanded in this encoding,
!!       and the unpitched percussion parts have been omitted.
!! Hichiriki Komabue
**kern	**kern
*M4/4	*M4/4
=1	=1
1r	2b
.	4ccc#
.	4eee
=2	=2
1r	4gg#
.	4gg#
.	4gg#
.	4ff#
=3	=3
4r	4ff#
4ff#	4r
4gg	8.ggn
.	16aa
4ff#	4ff#
=4	=4
2ee	[2ee
2r	4ee]
.	12ddd#
.	12eee
.	12ddd#
=5	=5
2ee	[2ccc#
2ff#	.
.	8.ccc#]
.	16ddd#
.	4ccc#
=6	=6
2cc#	8ccc#
.	8r
.	8ccc#
.	8bb
4b	4gg#
4r	8ff#
.	8gg#
=7	=7
2b	2bb
4.cc#	12ccc#
.	12ddd#
.	12ccc#
.	8bb
8b	8ccc#
=8	=8
1ee	1eee
=9	=9
2ee	4eee
.	{8.eee
.	48ddd#
.	48eee
.	48ddd#}
4.cc#	4ccc#
.	8ccc#
8b	8ddd#
=10	=10
2gg#	2gg#
4ff#	4ff#
4r	4r
=11	=11
4gg#	4gg#
8ff#	8ff#
8ee	8gg#
4cc#	16dd#
.	8.ccc#
4cc#	16ddd#
.	8.ccc#
=12	=12
{2b	4ccc#
.	4bb
4cc#}	4ccc#
4r	4r
=13	=13
2ee	2eee
4ee	4eee
4ff#	8fff#
.	8ggg#
=14	=14
4gg	4bb
8ff#	4bbb
8ee	.
2b	4ccc#
.	4bb
=15	=15
2.gg#	4ggg#
.	8fff#
.	8ggg#
.	4cccc#
4ff#	4bbb
=16	=16
4gg#	4ggg#
8ff#	8.ggg#
8ee	16fff#
2b	2ggg#
=17	=17
{4b	2bb
4a}	.
4ee	4ccc#
4ff#	4eee
=18	=18
4gg#	4gg#
4r	4gg#
4gg#	4gg#
4ff#	4ff#
=19	=19
2ff#	4ff#
.	4r
4gg#	{8.gg#
.	16aa}
4ff#	4ff#
=20	=20
4.ee	2ee
8ee	.
2ff#	4ff#
.	4r
=21	=21
4.ff#	4.ff#
8ee	8ee
4cc#	4ccc#
8.b	8bb
.	8gg#
{16g#	.
=22	=22
4.cc#}	2ccc#
8b	.
2ee	4fff#
.	4r
=23	=23
2ff#	2ff#
2gg	{4.ggn
.	8aa}
=24	=24
2ff#	2ff#
2gg	2gg
=25	=25
4.b	2bb
8a	.
4ee	4ccc#
4ff#	4eee
=26	=26
2gg#	4gg#
.	4gg#
4gg#	4gg#
4ff#	4ff#
=27	=27
2ff#	4ff#
.	4r
4gg	8.ggn
.	16aa
4ff#	4ff#
=28	=28
1eeT	2ee
.	4ee
.	12ddd#
.	12eee
.	12ddd#
=29	=29
2ee	[2ccc#
2ff#	.
.	8.ccc#]
.	16ddd#
.	4ccc#
=30	=30
2cc#	8ccc#
.	8r
.	8ccc#
.	8bb
4b	4gg#
4r	8ff#
.	8gg#
=31	=31
2b	2bb
4.cc#	12ccc#
.	12ddd#
.	12ccc#
.	8bb
8b	8ccc#
=32	=32
1ee	1eee
=33	=33
2ee	4eee
.	{8.eee
.	48ddd#
.	48eee
.	48ddd#}
4.cc#	4ccc#
.	8ccc#
8b	8ddd#
=34	=34
2gg#	2gg#
4ff#	4ff#
4r	4r
=35	=35
4gg#	4gg#
8ff#	8ff#
8ee	8gg#
4cc#	16dd#
.	8.ccc#
4cc#	16ddd#
.	8.ccc#
=36	=36
{2b	4ccc#
.	4bb
4cc#}	4ccc#
4r	4r
=37	=37
2ee	2eee
4ee	4eee
4ff#	8fff#
.	8ggg#
=38	=38
4gg	4bb
8ff#	4bbb
8ee	.
2b	4ccc#
.	4bb
=39	=39
2.gg#	4ggg#
.	8fff#
.	8ggg#
.	4cccc#
4ff#	4bbb
=40	=40
4gg#	4ggg#
8ff#	8.ggg#
8ee	16fff#
2b	2ggg#
=41	=41
{4b	2bb
4a}	.
4ee	4ccc#
4ff#	4eee
=42	=42
4gg#	4gg#
4r	4gg#
4gg#	4gg#
4ff#	4ff#
=43	=43
2ff#	4ff#
.	4r
4gg#	{8.gg#
.	16aa}
4ff#	4ff#
=44	=44
4.ee	2ee
8ee	.
2ff#	4ff#
.	4r
=45	=45
4.ff#	4.ff#
8ee	8ee
4cc#	4ccc#
8.b	8bb
.	8gg#
{16g#	.
=46	=46
4.cc#}	2ccc#
8b	.
2ee	4fff#
.	4r
=47	=47
2ff#	2ff#
2gg	{4.ggn
.	8aa}
=48	=48
2ff#	2ff#
2gg	2gg
=49	=49
4.b	2bb
8a	.
4ee	4ccc#
4ff#	4eee
=50	=50
2gg#	4gg#
.	4gg#
4gg#	4gg#
4ff#	4ff#
=51	=51
2ff#	4ff#
.	4r
4gg	8.ggn
.	16aa
4ff#	4ff#
=52	=52
1eeT	2ee
.	4ee
.	12ddd#
.	12eee
.	12ddd#
=53	=53
!! Coda (Tomede)
2ee	2eee
2b	4bb
.	4r
=54	=54
4.b	4.bb
8a	8ccc#
[2ee	[2eee
=55	=55
1ee_	1eee_
=56	=56
1ee]	1eee]
====	====
*-	*-
